; G-Code generated by Simplify3D(R) Version 4.0.0
; Jan 15, 2018 at 10:21:54 AM
; Settings Summary
;   processName,Process1
;   applyToModels,rta plate top
;   profileName,i3mk2s slow speed (modified)
;   profileVersion,2017-07-25 08:31:18
;   baseProfile,Prusa Research Original Prusa i3 MK2 (modified)
;   printMaterial,PLA
;   printQuality,Fast
;   printExtruders,
;   extruderName,Primary Extruder
;   extruderToolheadNumber,0
;   extruderDiameter,0.4
;   extruderAutoWidth,1
;   extruderWidth,0.48
;   extrusionMultiplier,1
;   extruderUseRetract,1
;   extruderRetractionDistance,4
;   extruderExtraRestartDistance,0
;   extruderRetractionZLift,0
;   extruderRetractionSpeed,1800
;   extruderUseCoasting,1
;   extruderCoastingDistance,0.2
;   extruderUseWipe,1
;   extruderWipeDistance,2
;   primaryExtruder,0
;   layerHeight,0.3
;   topSolidLayers,4
;   bottomSolidLayers,4
;   perimeterOutlines,4
;   printPerimetersInsideOut,1
;   startPointOption,1
;   startPointOriginX,0
;   startPointOriginY,0
;   sequentialIslands,0
;   spiralVaseMode,0
;   firstLayerHeightPercentage,110
;   firstLayerWidthPercentage,100
;   firstLayerUnderspeed,0.5
;   useRaft,1
;   raftExtruder,0
;   raftTopLayers,2
;   raftBaseLayers,1
;   raftOffset,3
;   raftSeparationDistance,0.25
;   raftTopInfill,40
;   aboveRaftSpeedMultiplier,0.9
;   useSkirt,1
;   skirtExtruder,0
;   skirtLayers,1
;   skirtOutlines,2
;   skirtOffset,4
;   usePrimePillar,0
;   primePillarExtruder,999
;   primePillarWidth,12
;   primePillarLocation,7
;   primePillarSpeedMultiplier,1
;   useOozeShield,0
;   oozeShieldExtruder,999
;   oozeShieldOffset,2
;   oozeShieldOutlines,1
;   oozeShieldSidewallShape,1
;   oozeShieldSidewallAngle,30
;   oozeShieldSpeedMultiplier,1
;   infillExtruder,0
;   internalInfillPattern,Fast Honeycomb
;   externalInfillPattern,Rectilinear
;   infillPercentage,10
;   outlineOverlapPercentage,20
;   infillExtrusionWidthPercentage,100
;   minInfillLength,5
;   infillLayerInterval,1
;   internalInfillAngles,0
;   overlapInternalInfillAngles,0
;   externalInfillAngles,45,-45
;   generateSupport,1
;   supportExtruder,0
;   supportInfillPercentage,20
;   supportExtraInflation,0
;   supportBaseLayers,0
;   denseSupportExtruder,0
;   denseSupportLayers,1
;   denseSupportInfillPercentage,15
;   supportLayerInterval,1
;   supportHorizontalPartOffset,0.3
;   supportUpperSeparationLayers,1
;   supportLowerSeparationLayers,1
;   supportType,0
;   supportGridSpacing,4
;   maxOverhangAngle,45
;   supportAngles,0
;   temperatureName,Primary Extruder,Heated Bed
;   temperatureNumber,0,0
;   temperatureSetpointCount,1,1
;   temperatureSetpointLayers,1,1
;   temperatureSetpointTemperatures,210,60
;   temperatureStabilizeAtStartup,1,1
;   temperatureHeatedBed,0,1
;   temperatureRelayBetweenLayers,0,0
;   temperatureRelayBetweenLoops,0,0
;   fanLayers,1,4
;   fanSpeeds,0,100
;   blipFanToFullPower,0
;   adjustSpeedForCooling,1
;   minSpeedLayerTime,15
;   minCoolingSpeedSlowdown,20
;   increaseFanForCooling,0
;   minFanLayerTime,45
;   maxCoolingFanSpeed,100
;   increaseFanForBridging,0
;   bridgingFanSpeed,100
;   use5D,1
;   relativeEdistances,0
;   allowEaxisZeroing,1
;   independentExtruderAxes,0
;   includeM10123,0
;   stickySupport,1
;   applyToolheadOffsets,0
;   gcodeXoffset,0
;   gcodeYoffset,0
;   gcodeZoffset,0
;   overrideMachineDefinition,1
;   machineTypeOverride,0
;   strokeXoverride,250
;   strokeYoverride,210
;   strokeZoverride,200
;   originOffsetXoverride,0
;   originOffsetYoverride,0
;   originOffsetZoverride,0
;   homeXdirOverride,-1
;   homeYdirOverride,-1
;   homeZdirOverride,-1
;   flipXoverride,1
;   flipYoverride,-1
;   flipZoverride,1
;   toolheadOffsets,0,0|0,0|0,0|0,0|0,0|0,0
;   overrideFirmwareConfiguration,1
;   firmwareTypeOverride,RepRap (Marlin/Repetier/Sprinter)
;   GPXconfigOverride,r2
;   baudRateOverride,250000
;   overridePrinterModels,1
;   printerModelsOverride
;   startingGcode,M115 U3.0.7 ; use the latest firmware version,G28 W ; home all axes without mesh bed leveling,G80 ; run mesh bed leveling routine,G1 Y-3.0 F1000.0 ; prepare to prime,G92 E0 ; reset extrusion distance,G1 X60.0 E9.0  F1000.0 ; priming,G1 X100.0 E12.5  F1000.0 ; priming
;   layerChangeGcode,
;   retractionGcode,
;   toolChangeGcode,
;   endingGcode,M106 S0 ; turn off cooling fan,M104 S0 ; turn off extruder,M140 S0 ; turn off bed,G1 X0 Y200 ; part removal,M84 ; disable motors
;   exportFileFormat,gcode
;   celebration,0
;   celebrationSong,Random Song
;   postProcessing,
;   defaultSpeed,2000
;   outlineUnderspeed,0.8
;   solidInfillUnderspeed,0.8
;   supportUnderspeed,0.8
;   rapidXYspeed,4400
;   rapidZspeed,8000
;   minBridgingArea,50
;   bridgingExtraInflation,0
;   bridgingExtrusionMultiplier,1
;   bridgingSpeedMultiplier,1
;   useFixedBridgingAngle,0
;   fixedBridgingAngle,0
;   applyBridgingToPerimeters,0
;   filamentDiameters,1.75|1.75|1.75|1.75|1.75|1.75
;   filamentPricesPerKg,46|46|46|46|46|46
;   filamentDensities,1.25|1.25|1.25|1.25|1.25|1.25
;   useMinPrintHeight,0
;   minPrintHeight,0
;   useMaxPrintHeight,0
;   maxPrintHeight,147
;   useDiaphragm,1
;   diaphragmLayerInterval,20
;   robustSlicing,1
;   mergeAllIntoSolid,0
;   onlyRetractWhenCrossingOutline,1
;   retractBetweenLayers,1
;   useRetractionMinTravel,0
;   retractionMinTravel,3
;   retractWhileWiping,1
;   onlyWipeOutlines,1
;   avoidCrossingOutline,0
;   maxMovementDetourFactor,3
;   toolChangeRetractionDistance,12
;   toolChangeExtraRestartDistance,-0.5
;   toolChangeRetractionSpeed,600
;   externalThinWallType,0
;   internalThinWallType,2
;   thinWallAllowedOverlapPercentage,25
;   singleExtrusionMinLength,1
;   singleExtrusionMinPrintingWidthPercentage,50
;   singleExtrusionMaxPrintingWidthPercentage,200
;   singleExtrusionEndpointExtension,0.2
;   horizontalSizeCompensation,0
G90
M82
M106 S0
M140 S60
M190 S60
M104 S210 T0
M109 S210 T0
M115 U3.0.7 ; use the latest firmware version
G28 W ; home all axes without mesh bed leveling
G80 ; run mesh bed leveling routine
G1 Y-3.0 F1000.0 ; prepare to prime
G92 E0 ; reset extrusion distance
G1 X60.0 E9.0  F1000.0 ; priming
G1 X100.0 E12.5  F1000.0 ; priming
G92 E0
G1 E-4.0000 F1800
G1 Z0.550 F8000
; process Process1
; layer 1, Z = 0.550
T0
; tool H0.550 W0.480
; skirt
G1 X80.280 Y14.457 F4400
G1 E0.0000 F540
G92 E0
G1 X80.390 Y14.193 E0.0314 F1000
G1 X84.693 Y9.890 E0.6994
G1 X84.957 Y9.780 E0.7308
G1 X165.043 Y9.780 E9.5209
G1 X165.307 Y9.890 E9.5523
G1 X169.610 Y14.193 E10.2202
G1 X169.720 Y14.457 E10.2517
G1 X169.720 Y70.543 E16.4075
G1 X169.610 Y70.807 E16.4389
G1 X165.307 Y75.110 E17.1069
G1 X165.043 Y75.220 E17.1383
G1 X159.720 Y75.220 E17.7225
G1 X159.720 Y84.780 E18.7718
G1 X165.043 Y84.780 E19.3560
G1 X165.307 Y84.890 E19.3875
G1 X169.610 Y89.193 E20.0554
G1 X169.720 Y89.457 E20.0868
G1 X169.720 Y195.543 E31.7306
G1 X169.610 Y195.807 E31.7620
G1 X165.307 Y200.110 E32.4300
G1 X165.043 Y200.220 E32.4614
G1 X84.957 Y200.220 E41.2515
G1 X84.693 Y200.110 E41.2829
G1 X80.390 Y195.807 E41.9508
G1 X80.280 Y195.543 E41.9823
G1 X80.280 Y14.657 E61.8360
G1 X80.280 Y14.457 F1000
G92 E0
G1 E-4.0000 F1800
G1 X80.760 Y14.553 F4400
G1 E0.0000 F1800
G92 E0
G1 X80.797 Y14.465 E0.0105 F1000
G1 X84.965 Y10.297 E0.6574
G1 X85.053 Y10.260 E0.6679
G1 X164.947 Y10.260 E9.4370
G1 X165.035 Y10.297 E9.4475
G1 X169.203 Y14.465 E10.0945
G1 X169.240 Y14.553 E10.1049
G1 X169.240 Y70.447 E16.2398
G1 X169.203 Y70.535 E16.2503
G1 X165.035 Y74.703 E16.8973
G1 X164.947 Y74.740 E16.9078
G1 X159.240 Y74.740 E17.5342
G1 X159.240 Y85.260 E18.6888
G1 X164.947 Y85.260 E19.3153
G1 X165.035 Y85.297 E19.3257
G1 X169.203 Y89.465 E19.9727
G1 X169.240 Y89.553 E19.9832
G1 X169.240 Y195.447 E31.6060
G1 X169.203 Y195.535 E31.6165
G1 X165.035 Y199.703 E32.2634
G1 X164.947 Y199.740 E32.2739
G1 X85.053 Y199.740 E41.0430
G1 X84.965 Y199.703 E41.0535
G1 X80.797 Y195.535 E41.7005
G1 X80.760 Y195.447 E41.7109
G1 X80.760 Y14.753 E61.5437
G1 X80.760 Y14.553 F1000
G92 E0
G1 E-4.0000 F1800
; tool H0.550 W0.800
; raft
G1 X85.400 Y16.423 F4400
G1 E0.0000 F1800
G92 E0
G1 X86.923 Y14.900 E0.3940 F250
G1 X163.077 Y14.900 E14.3249
G1 X164.600 Y16.423 E14.7189
G1 X164.600 Y68.577 E24.2595
G1 X163.077 Y70.100 E24.6535
G1 X154.600 Y70.100 E26.2042
G1 X154.600 Y89.900 E29.8262
G1 X163.077 Y89.900 E31.3769
G1 X164.600 Y91.423 E31.7709
G1 X164.600 Y193.577 E50.4580
G1 X163.077 Y195.100 E50.8520
G1 X86.923 Y195.100 E64.7829
G1 X85.400 Y193.577 E65.1769
G1 X85.400 Y16.623 E97.5473
G1 X85.400 Y16.423 F250
G92 E0
G1 E-4.0000 F1800
G1 X87.097 Y15.857 F4400
G1 E0.0000 F1800
G92 E0
G1 X162.903 Y15.857 E13.8672 F250
G1 X163.800 Y16.754 E14.0993
G1 X163.800 Y18.143 E14.3533
G1 X86.200 Y18.143 E28.5487
G1 X86.200 Y20.429 E28.9668
G1 X163.800 Y20.429 E43.1622
G1 X163.800 Y22.714 E43.5804
G1 X86.200 Y22.714 E57.7758
G1 X86.200 Y25.000 E58.1939
G1 X163.800 Y25.000 E72.3894
G1 X163.800 Y27.286 E72.8075
G1 X86.200 Y27.286 E87.0029
G1 X86.200 Y29.571 E87.4210
G1 X163.800 Y29.571 E101.6165
G1 X163.800 Y31.857 E102.0346
G1 X86.200 Y31.857 E116.2300
G1 X86.200 Y34.143 E116.6481
G1 X163.800 Y34.143 E130.8436
G1 X163.800 Y36.429 E131.2617
G1 X86.200 Y36.429 E145.4571
G1 X86.200 Y38.714 E145.8752
G1 X163.800 Y38.714 E160.0707
G1 X163.800 Y41.000 E160.4888
G1 X86.200 Y41.000 E174.6842
G1 X86.200 Y43.286 E175.1024
G1 X163.800 Y43.286 E189.2978
G1 X163.800 Y45.571 E189.7159
G1 X86.200 Y45.571 E203.9113
G1 X86.200 Y47.857 E204.3295
G1 X163.800 Y47.857 E218.5249
G1 X163.800 Y50.143 E218.9430
G1 X86.200 Y50.143 E233.1384
G1 X86.200 Y52.429 E233.5566
G1 X163.800 Y52.429 E247.7520
G1 X163.800 Y54.714 E248.1701
G1 X86.200 Y54.714 E262.3655
G1 X86.200 Y57.000 E262.7837
G1 X163.800 Y57.000 E276.9791
G1 X163.800 Y59.286 E277.3972
G1 X86.200 Y59.286 E291.5926
G1 X86.200 Y61.571 E292.0108
G1 X163.800 Y61.571 E306.2062
G1 X163.800 Y63.857 E306.6243
G1 X86.200 Y63.857 E320.8198
G1 X86.200 Y66.143 E321.2379
G1 X163.800 Y66.143 E335.4333
G1 X163.800 Y68.246 E335.8180
G1 X163.617 Y68.429 E335.8653
G1 X86.200 Y68.429 E350.0272
G1 X86.200 Y70.714 E350.4454
G1 X153.800 Y70.714 E362.8115
G1 X153.800 Y73.000 E363.2296
G1 X86.200 Y73.000 E375.5957
G1 X86.200 Y75.286 E376.0139
G1 X153.800 Y75.286 E388.3800
G1 X153.800 Y77.571 E388.7981
G1 X86.200 Y77.571 E401.1642
G1 X86.200 Y79.857 E401.5824
G1 X153.800 Y79.857 E413.9485
G1 X153.800 Y82.143 E414.3666
G1 X86.200 Y82.143 E426.7327
G1 X86.200 Y84.429 E427.1508
G1 X153.800 Y84.429 E439.5170
G1 X153.800 Y86.714 E439.9351
G1 X86.200 Y86.714 E452.3012
G1 X86.200 Y89.000 E452.7193
G1 X153.800 Y89.000 E465.0855
G1 X153.800 Y90.700 E465.3964
G1 X162.746 Y90.700 E467.0329
G1 X163.331 Y91.286 E467.1844
G1 X86.200 Y91.286 E481.2941
G1 X86.200 Y93.571 E481.7122
G1 X163.800 Y93.571 E495.9076
G1 X163.800 Y95.857 E496.3258
G1 X86.200 Y95.857 E510.5212
G1 X86.200 Y98.143 E510.9393
G1 X163.800 Y98.143 E525.1347
G1 X163.800 Y100.429 E525.5529
G1 X86.200 Y100.429 E539.7483
G1 X86.200 Y102.714 E540.1664
G1 X163.800 Y102.714 E554.3618
G1 X163.800 Y105.000 E554.7800
G1 X86.200 Y105.000 E568.9754
G1 X86.200 Y107.286 E569.3935
G1 X163.800 Y107.286 E583.5889
G1 X163.800 Y109.571 E584.0071
G1 X86.200 Y109.571 E598.2025
G1 X86.200 Y111.857 E598.6206
G1 X163.800 Y111.857 E612.8161
G1 X163.800 Y114.143 E613.2342
G1 X86.200 Y114.143 E627.4296
G1 X86.200 Y116.429 E627.8477
G1 X163.800 Y116.429 E642.0432
G1 X163.800 Y118.714 E642.4613
G1 X86.200 Y118.714 E656.6567
G1 X86.200 Y121.000 E657.0748
G1 X163.800 Y121.000 E671.2703
G1 X163.800 Y123.286 E671.6884
G1 X86.200 Y123.286 E685.8838
G1 X86.200 Y125.571 E686.3019
G1 X163.800 Y125.571 E700.4974
G1 X163.800 Y127.857 E700.9155
G1 X86.200 Y127.857 E715.1109
G1 X86.200 Y130.143 E715.5291
G1 X163.800 Y130.143 E729.7245
G1 X163.800 Y132.429 E730.1426
G1 X86.200 Y132.429 E744.3380
G1 X86.200 Y134.714 E744.7562
G1 X163.800 Y134.714 E758.9516
G1 X163.800 Y137.000 E759.3697
G1 X86.200 Y137.000 E773.5651
G1 X86.200 Y139.286 E773.9833
G1 X163.800 Y139.286 E788.1787
G1 X163.800 Y141.571 E788.5968
G1 X86.200 Y141.571 E802.7922
G1 X86.200 Y143.857 E803.2104
G1 X163.800 Y143.857 E817.4058
G1 X163.800 Y146.143 E817.8239
G1 X86.200 Y146.143 E832.0193
G1 X86.200 Y148.429 E832.4375
G1 X163.800 Y148.429 E846.6329
G1 X163.800 Y150.714 E847.0510
G1 X86.200 Y150.714 E861.2465
G1 X86.200 Y153.000 E861.6646
G1 X163.800 Y153.000 E875.8600
G1 X163.800 Y155.286 E876.2781
G1 X86.200 Y155.286 E890.4736
G1 X86.200 Y157.571 E890.8917
G1 X163.800 Y157.571 E905.0871
G1 X163.800 Y159.857 E905.5052
G1 X86.200 Y159.857 E919.7007
G1 X86.200 Y162.143 E920.1188
G1 X163.800 Y162.143 E934.3142
G1 X163.800 Y164.429 E934.7323
G1 X86.200 Y164.429 E948.9278
G1 X86.200 Y166.714 E949.3459
G1 X163.800 Y166.714 E963.5413
G1 X163.800 Y169.000 E963.9595
G1 X86.200 Y169.000 E978.1549
G1 X86.200 Y171.286 E978.5730
G1 X163.800 Y171.286 E992.7684
G1 X163.800 Y173.571 E993.1866
G1 X86.200 Y173.571 E1007.3820
G1 X86.200 Y175.857 E1007.8001
G1 X163.800 Y175.857 E1021.9955
G1 X163.800 Y178.143 E1022.4137
G1 X86.200 Y178.143 E1036.6091
G1 X86.200 Y180.429 E1037.0272
G1 X163.800 Y180.429 E1051.2226
G1 X163.800 Y182.714 E1051.6408
G1 X86.200 Y182.714 E1065.8362
G1 X86.200 Y185.000 E1066.2543
G1 X163.800 Y185.000 E1080.4498
G1 X163.800 Y187.286 E1080.8679
G1 X86.200 Y187.286 E1095.0633
G1 X86.200 Y189.571 E1095.4814
G1 X163.800 Y189.571 E1109.6769
G1 X163.800 Y191.857 E1110.0950
G1 X86.200 Y191.857 E1124.2904
G1 X86.200 Y193.246 E1124.5444
G1 X87.097 Y194.143 E1124.7765
G1 X162.703 Y194.143 E1138.6071
G1 X162.903 Y194.143 F250
G92 E0
G1 E-4.0000 F1800
; layer 2, Z = 0.772
; tool H0.222 W0.400
G1 X88.021 Y195.300 F4400
G1 Z0.772 F8000
G1 E0.0000 F1800
G92 E0
G1 X85.200 Y192.479 E0.1474 F1500
G1 X85.200 Y191.065 E0.1997
G1 X89.435 Y195.300 E0.4210
G1 X90.849 Y195.300 E0.4733
G1 X85.200 Y189.651 E0.7685
G1 X85.200 Y188.237 E0.8208
G1 X92.263 Y195.300 E1.1900
G1 X93.678 Y195.300 E1.2422
G1 X85.200 Y186.822 E1.6853
G1 X85.200 Y185.408 E1.7375
G1 X95.092 Y195.300 E2.2545
G1 X96.506 Y195.300 E2.3068
G1 X85.200 Y183.994 E2.8977
G1 X85.200 Y182.580 E2.9499
G1 X97.920 Y195.300 E3.6148
G1 X99.335 Y195.300 E3.6670
G1 X85.200 Y181.165 E4.4057
G1 X85.200 Y179.751 E4.4580
G1 X100.749 Y195.300 E5.2706
G1 X102.163 Y195.300 E5.3229
G1 X85.200 Y178.337 E6.2094
G1 X85.200 Y176.923 E6.2617
G1 X103.577 Y195.300 E7.2221
G1 X104.991 Y195.300 E7.2744
G1 X85.200 Y175.509 E8.3088
G1 X85.200 Y174.094 E8.3610
G1 X106.406 Y195.300 E9.4693
G1 X107.820 Y195.300 E9.5216
G1 X85.200 Y172.680 E10.7037
G1 X85.200 Y171.266 E10.7560
G1 X109.234 Y195.300 E12.0121
G1 X110.648 Y195.300 E12.0644
G1 X85.200 Y169.852 E13.3944
G1 X85.200 Y168.438 E13.4466
G1 X112.062 Y195.300 E14.8505
G1 X113.477 Y195.300 E14.9028
G1 X85.200 Y167.023 E16.3806
G1 X85.200 Y165.609 E16.4329
G1 X114.891 Y195.300 E17.9846
G1 X116.305 Y195.300 E18.0369
G1 X85.200 Y164.195 E19.6626
G1 X85.200 Y162.781 E19.7148
G1 X117.719 Y195.300 E21.4144
G1 X119.133 Y195.300 E21.4667
G1 X85.200 Y161.367 E23.2401
G1 X85.200 Y159.952 E23.2924
G1 X120.548 Y195.300 E25.1398
G1 X121.962 Y195.300 E25.1920
G1 X85.200 Y158.538 E27.1133
G1 X85.200 Y157.124 E27.1656
G1 X123.376 Y195.300 E29.1608
G1 X124.790 Y195.300 E29.2131
G1 X85.200 Y155.710 E31.2822
G1 X85.200 Y154.295 E31.3345
G1 X126.205 Y195.300 E33.4775
G1 X127.619 Y195.300 E33.5298
G1 X85.200 Y152.881 E35.7467
G1 X85.200 Y151.467 E35.7990
G1 X129.033 Y195.300 E38.0898
G1 X130.447 Y195.300 E38.1421
G1 X85.200 Y150.053 E40.5068
G1 X85.200 Y148.639 E40.5591
G1 X131.861 Y195.300 E42.9978
G1 X133.276 Y195.300 E43.0500
G1 X85.200 Y147.224 E45.5626
G1 X85.200 Y145.810 E45.6149
G1 X134.690 Y195.300 E48.2014
G1 X136.104 Y195.300 E48.2537
G1 X85.200 Y144.396 E50.9141
G1 X85.200 Y142.982 E50.9663
G1 X137.518 Y195.300 E53.7007
G1 X138.932 Y195.300 E53.7529
G1 X85.200 Y141.568 E56.5612
G1 X85.200 Y140.153 E56.6134
G1 X140.347 Y195.300 E59.4956
G1 X141.761 Y195.300 E59.5478
G1 X85.200 Y138.739 E62.5039
G1 X85.200 Y137.325 E62.5562
G1 X143.175 Y195.300 E65.5861
G1 X144.589 Y195.300 E65.6384
G1 X85.200 Y135.911 E68.7423
G1 X85.200 Y134.496 E68.7945
